places/scalable/folder-brown-electron.svg

<?xml version="1.0" standalone="no"?><!-- Generator: Gravit.io -->
<svg xmlns="http://www.w3.org/2000/svg" 
  xmlns:xlink="http://www.w3.org/1999/xlink" style="isolation:isolate" viewBox="0 0 256 256" width="256" height="256">
  <g id="folder">
    <path d=" M 53.705469 21 C 17.390414 21 13.666667 23.055089 13.666667 59.371035 L 13.666667 111.538229 L 243.666667 111.538229 L 243.666667 79.563042 C 243.666667 43.247098 239.942918 37.460768 203.627861 37.460768 L 114.291921 37.460768 L 97.864201 21 L 53.705469 21 Z " id="orange" fill="#957552"/>
    <path d=" M 53.705469 70.384311 C 17.388415 70.384311 13.666667 74.113541 13.666667 110.429488 L 13.666667 194.952819 C 13.666667 231.268759 17.388415 235 53.705469 235 L 203.627861 235 C 239.944918 235 243.666667 231.268759 243.666667 194.952819 L 243.666667 93.968715 C 243.666667 57.652775 239.944918 53.921534 203.627861 53.921534 L 120.196686 53.921534 L 103.758968 70.384311 L 53.705469 70.384311 Z " id="change-color-easy" fill="#AE8E6C"/>
    <linearGradient id="_lgradient_4" x1="0" y1="0.5" x2="2.83276944882399e-16" y2="-0.5" gradientTransform="matrix(230,0,0,181.078466,13.666667,53.921534)" gradientUnits="userSpaceOnUse">
      <stop offset="0%" stop-opacity="0.07" style="stop-color:rgb(255,255,255)"/>
      <stop offset="67.28219512106674%" stop-opacity="0" style="stop-color:rgb(252,239,232)"/>
    </linearGradient>
    <path d=" M 53.705469 70.384311 C 17.388415 70.384311 13.666667 74.113541 13.666667 110.429488 L 13.666667 194.952819 C 13.666667 231.268759 17.388415 235 53.705469 235 L 203.627861 235 C 239.944918 235 243.666667 231.268759 243.666667 194.952819 L 243.666667 93.968715 C 243.666667 57.652775 239.944918 53.921534 203.627861 53.921534 L 120.196686 53.921534 L 103.758968 70.384311 L 53.705469 70.384311 Z " id="gradient white" fill="url(#_lgradient_4)"/>
    <g opacity="0.4">
      <radialGradient id="_rgradient_8" fx="0.5000000213726793" fy="0.13577386516315215" cx="0.5" cy="0.5" r="0.27154159375000003" gradientTransform="matrix(230,0,0,60.620138,13.666667,21)" gradientUnits="userSpaceOnUse">
        <stop offset="0%" stop-opacity="1" style="stop-color:rgb(255,255,255)"/>
        <stop offset="100%" stop-opacity="0.20392157" style="stop-color:rgb(255,255,255)"/>
      </radialGradient>
      <path d=" M 53.705469 21 C 17.390414 21 13.666667 23.055089 13.666667 59.371035 L 13.666667 61.430128 C 13.666667 25.114188 17.390414 23.057095 53.705469 23.057095 L 97.864201 23.057095 L 114.291921 39.517861 L 203.627861 39.517861 C 239.942918 39.517861 243.666667 45.304195 243.666667 81.620138 L 243.666667 79.563042 C 243.666667 43.247098 239.942918 37.460768 203.627861 37.460768 L 114.291921 37.460768 L 97.864201 21 L 53.705469 21 Z " id="white" fill="url(#_rgradient_8)"/>
    </g>
    <g opacity="0.4">
      <radialGradient id="_rgradient_9" fx="0.48214287810452355" fy="0.2108154047287485" cx="0.5" cy="0.5" r="0.27154159375" gradientTransform="matrix(230,0,0,58.565044,13.666667,53.921534)" gradientUnits="userSpaceOnUse">
        <stop offset="0%" stop-opacity="1" style="stop-color:rgb(255,255,255)"/>
        <stop offset="100%" stop-opacity="0.20392157" style="stop-color:rgb(255,255,255)"/>
      </radialGradient>
      <path d=" M 120.196686 53.921534 L 103.758968 70.384311 L 53.705469 70.384311 C 17.390414 70.384311 13.666667 74.111537 13.666667 110.427484 L 13.666667 112.486577 C 13.666667 76.170637 17.390414 72.4414 53.705469 72.4414 L 103.758968 72.4414 L 120.196686 55.980634 L 203.627861 55.980634 C 239.942918 55.980634 243.666667 59.707868 243.666667 96.023808 L 243.666667 93.966711 C 243.666667 57.650771 239.942918 53.921534 203.627861 53.921534 L 120.196686 53.921534 Z " id="white" fill="url(#_rgradient_9)"/>
    </g>
    <g opacity="0.1">
      <path d=" M 243.666667 167.095832 L 177.951803 232.940899 L 203.627861 232.940899 C 239.942918 232.940899 243.666667 229.213666 243.666667 192.897726 L 243.666667 167.095832 Z " id="white" fill="rgb(255,255,255)"/>
    </g>
    <g opacity="0.2">
      <path d=" M 13.666667 192.897726 L 13.666667 194.954823 C 13.666667 231.270763 17.390414 235 53.705469 235 L 203.627861 235 C 239.942918 235 243.666667 231.270763 243.666667 194.954823 L 243.666667 192.897726 C 243.666667 229.213666 239.942918 232.940899 203.627861 232.940899 L 53.705469 232.940899 C 17.390414 232.940899 13.666667 229.213666 13.666667 192.897726 Z " id="dark" fill="rgb(0,0,0)"/>
    </g>
  </g>
  <g id="electron" style="opacity:0.62;">
    <path d=" M 110.352941 115.006536 C 93.359477 111.869281 79.938998 115.180828 74.535948 124.418301 C 70.527233 131.302832 71.660131 140.540305 77.324619 150.300654 C 77.760349 151.172113 78.893246 151.433551 79.67756 150.910675 C 80.54902 150.474946 80.810458 149.342048 80.287582 148.557734 C 75.233115 139.755991 74.27451 131.825708 77.498911 126.16122 C 81.943355 118.492375 93.969499 115.529412 109.655773 118.405229 C 110.614379 118.579521 111.485839 117.969499 111.660131 117.010893 C 111.834423 116.052288 111.311547 115.180828 110.352941 115.006536 Z  M 86.213508 162.239651 C 93.098039 169.821351 101.986928 176.880174 112.183007 182.718954 C 136.845316 196.923747 163.076253 200.75817 176.061002 191.956427 C 176.845316 191.433551 177.019608 190.300654 176.496732 189.51634 C 175.973856 188.732026 174.840959 188.557734 174.056645 189.08061 C 162.466231 197.010893 137.542484 193.350763 113.925926 179.755991 C 104.078431 174.091503 95.363834 167.206972 88.740741 159.88671 C 88.130719 159.189542 86.997821 159.102397 86.300654 159.799564 C 85.603486 160.409586 85.51634 161.542484 86.213508 162.239651 Z " id="Compound Path" fill="#FFFFFF"/>
    <path d=" M 171.877996 160.148148 C 183.03268 146.989107 186.867102 133.742919 181.551198 124.505447 C 177.62963 117.708061 169.263617 114.135076 158.283224 113.960784 C 157.324619 113.960784 156.540305 114.745098 156.540305 115.703704 C 156.540305 116.662309 157.324619 117.446623 158.283224 117.446623 C 168.217865 117.533769 175.363834 120.671024 178.588235 126.248366 C 183.03268 133.917211 179.546841 145.769063 169.263617 157.882353 C 168.653595 158.579521 168.740741 159.712418 169.437908 160.32244 C 170.135076 160.932462 171.267974 160.845316 171.877996 160.148148 L 171.877996 160.148148 Z  M 143.294118 115.529412 C 133.272331 117.708061 122.553377 121.891068 112.270153 127.816993 C 86.736383 142.544662 70.178649 164.244009 72.444444 179.930283 C 72.618736 180.888889 73.490196 181.498911 74.448802 181.411765 C 75.407407 181.237473 76.017429 180.366013 75.930283 179.407407 C 73.83878 165.464052 89.6122 144.984749 114.013072 130.867102 C 124.034858 125.115468 134.405229 121.019608 144.078431 118.928105 C 145.037037 118.753813 145.647059 117.795207 145.385621 116.836601 C 145.124183 115.965142 144.252723 115.35512 143.294118 115.529412 Z " id="Compound Path" fill="#FFFFFF"/>
    <path d=" M 102.074074 190.823529 C 107.912854 207.03268 117.411765 217.054466 128.130719 217.054466 C 135.973856 217.054466 143.119826 211.738562 148.784314 202.326797 C 149.30719 201.542484 149.045752 200.409586 148.174292 199.973856 C 147.389978 199.45098 146.257081 199.712418 145.821351 200.583878 C 140.766885 209.037037 134.579521 213.568627 128.130719 213.568627 C 119.24183 213.568627 110.788671 204.679739 105.385621 189.603486 C 105.037037 188.732026 104.078431 188.20915 103.119826 188.557734 C 102.16122 188.906318 101.72549 189.95207 102.074074 190.823529 L 102.074074 190.823529 Z  M 155.233115 187.686275 C 158.283224 178.100218 159.851852 166.945534 159.851852 155.35512 C 159.851852 126.509804 149.742919 101.586057 135.363834 95.224401 C 134.492375 94.875817 133.446623 95.224401 133.098039 96.095861 C 132.749455 96.96732 133.098039 98.013072 133.969499 98.361656 C 146.779956 104.026144 156.366013 127.642702 156.366013 155.35512 C 156.366013 166.59695 154.797386 177.315904 151.921569 186.640523 C 151.660131 187.599129 152.183007 188.557734 153.054466 188.819172 C 153.925926 189.08061 154.884532 188.557734 155.233115 187.686275 L 155.233115 187.686275 Z  M 188 185.943355 C 188 181.324619 184.252723 177.577342 179.633987 177.577342 C 175.015251 177.577342 171.267974 181.324619 171.267974 185.943355 C 171.267974 190.562092 175.015251 194.309368 179.633987 194.309368 C 184.339869 194.309368 188 190.562092 188 185.943355 Z  M 184.514161 185.943355 C 184.514161 188.64488 182.335512 190.823529 179.633987 190.823529 C 176.932462 190.823529 174.753813 188.64488 174.753813 185.943355 C 174.753813 183.24183 176.932462 181.063181 179.633987 181.063181 C 182.335512 181.063181 184.514161 183.24183 184.514161 185.943355 Z  M 76.366013 194.309368 C 80.984749 194.309368 84.732026 190.562092 84.732026 185.943355 C 84.732026 181.324619 80.984749 177.577342 76.366013 177.577342 C 71.747277 177.577342 68 181.324619 68 185.943355 C 68 190.562092 71.747277 194.309368 76.366013 194.309368 Z  M 76.366013 190.823529 C 73.664488 190.823529 71.485839 188.64488 71.485839 185.943355 C 71.485839 183.24183 73.664488 181.063181 76.366013 181.063181 C 79.067538 181.063181 81.246187 183.24183 81.246187 185.943355 C 81.246187 188.64488 79.067538 190.823529 76.366013 190.823529 Z " id="Compound Path" fill="#FFFFFF"/>
    <path d=" M 128.130719 103.67756 C 132.749455 103.67756 136.496732 99.930283 136.496732 95.311547 C 136.496732 90.69281 132.749455 86.945534 128.130719 86.945534 C 123.511983 86.945534 119.764706 90.69281 119.764706 95.311547 C 119.764706 99.930283 123.511983 103.67756 128.130719 103.67756 Z  M 128.130719 100.191721 C 125.429194 100.191721 123.250545 98.013072 123.250545 95.311547 C 123.250545 92.610022 125.429194 90.431373 128.130719 90.431373 C 130.832244 90.431373 133.010893 92.610022 133.010893 95.311547 C 133.010893 98.013072 130.745098 100.191721 128.130719 100.191721 Z  M 129.350763 161.281046 C 126.126362 161.978214 122.901961 159.88671 122.204793 156.662309 C 121.507625 153.437908 123.599129 150.213508 126.823529 149.51634 C 130.04793 148.819172 133.272331 150.910675 133.969499 154.135076 C 134.666667 157.359477 132.662309 160.583878 129.350763 161.281046 Z " id="Compound Path" fill="#FFFFFF"/>
  </g>
</svg>

<svg xmlns="http://www.w3.org/2000/svg" style="isolation:isolate" width="256" height="256"><path d="M53.705 21c-36.315 0-40.038 2.055-40.038 38.371v52.167h230V79.563c0-36.316-3.724-42.102-40.04-42.102h-89.335L97.864 21H53.705z" fill="#957552"/><path d="M53.705 70.384c-36.317 0-40.038 3.73-40.038 40.045v84.524c0 36.316 3.721 40.047 40.038 40.047h149.923c36.317 0 40.039-3.731 40.039-40.047V93.969c0-36.316-3.722-40.047-40.04-40.047h-83.43l-16.438 16.462H53.705z" fill="#AE8E6C"/><linearGradient id="a" y1=".5" x2="0" y2="-.5" gradientTransform="matrix(230 0 0 181.07847 13.667 53.922)" gradientUnits="userSpaceOnUse"><stop offset="0%" stop-opacity=".07" stop-color="#fff"/><stop offset="67.282%" stop-opacity="0" stop-color="#fcefe8"/></linearGradient><path d="M53.705 70.384c-36.317 0-40.038 3.73-40.038 40.045v84.524c0 36.316 3.721 40.047 40.038 40.047h149.923c36.317 0 40.039-3.731 40.039-40.047V93.969c0-36.316-3.722-40.047-40.04-40.047h-83.43l-16.438 16.462H53.705z" fill="url(#a)"/><g opacity=".4"><radialGradient id="b" fx=".5" fy=".136" cx=".5" cy=".5" r=".272" gradientTransform="matrix(230 0 0 60.62014 13.667 21)" gradientUnits="userSpaceOnUse"><stop offset="0%" stop-color="#fff"/><stop offset="100%" stop-opacity=".204" stop-color="#fff"/></radialGradient><path d="M53.705 21c-36.315 0-40.038 2.055-40.038 38.371v2.06c0-36.317 3.723-38.374 40.038-38.374h44.16l16.427 16.46h89.336c36.315 0 40.039 5.787 40.039 42.103v-2.057c0-36.316-3.724-42.102-40.04-42.102h-89.335L97.864 21H53.705z" fill="url(#b)"/></g><g opacity=".4"><radialGradient id="c" fx=".482" fy=".211" cx=".5" cy=".5" r=".272" gradientTransform="matrix(230 0 0 58.56504 13.667 53.922)" gradientUnits="userSpaceOnUse"><stop offset="0%" stop-color="#fff"/><stop offset="100%" stop-opacity=".204" stop-color="#fff"/></radialGradient><path d="M120.197 53.922l-16.438 16.462H53.705c-36.315 0-40.038 3.728-40.038 40.043v2.06c0-36.316 3.723-40.046 40.038-40.046h50.054l16.438-16.46h83.43c36.316 0 40.04 3.727 40.04 40.043v-2.057c0-36.316-3.724-40.045-40.04-40.045h-83.43z" fill="url(#c)"/></g><path d="M243.667 167.096l-65.715 65.845h25.676c36.315 0 40.039-3.727 40.039-40.043v-25.802z" fill="#FFF" opacity=".1"/><path d="M13.667 192.898v2.057C13.667 231.27 17.39 235 53.705 235h149.923c36.315 0 40.039-3.73 40.039-40.045v-2.057c0 36.316-3.724 40.043-40.04 40.043H53.706c-36.315 0-40.038-3.727-40.038-40.043z" opacity=".2"/><g opacity=".62" fill="#FFF"><path d="M110.353 115.007c-16.994-3.138-30.414.174-35.817 9.411-4.009 6.885-2.876 16.122 2.789 25.883.435.871 1.568 1.133 2.353.61.871-.436 1.132-1.569.61-2.353-5.055-8.802-6.013-16.732-2.79-22.397 4.445-7.669 16.471-10.632 32.158-7.756a1.7 1.7 0 0 0 2.004-1.394c.174-.959-.348-1.83-1.307-2.004zm-24.14 47.233c6.885 7.581 15.774 14.64 25.97 20.479 24.662 14.205 50.893 18.04 63.878 9.237.784-.522.959-1.655.436-2.44-.523-.784-1.656-.958-2.44-.435-11.59 7.93-36.515 4.27-60.131-9.325-9.848-5.664-18.562-12.549-25.185-19.87-.61-.696-1.743-.784-2.44-.086-.698.61-.785 1.742-.087 2.44z"/><path d="M171.878 160.148c11.155-13.159 14.99-26.405 9.673-35.643-3.921-6.797-12.287-10.37-23.268-10.544-.958 0-1.743.784-1.743 1.743 0 .958.785 1.743 1.743 1.743 9.935.087 17.08 3.224 20.305 8.801 4.445 7.67.959 19.521-9.324 31.634-.61.698-.523 1.83.174 2.44.697.61 1.83.523 2.44-.174zm-28.584-44.619c-10.022 2.18-20.74 6.362-31.024 12.288-25.534 14.728-42.091 36.427-39.826 52.113.175.959 1.046 1.569 2.005 1.482.958-.175 1.568-1.046 1.481-2.005-2.091-13.943 13.682-34.422 38.083-48.54 10.022-5.752 20.392-9.847 30.065-11.939a1.67 1.67 0 0 0 1.308-2.091c-.262-.872-1.133-1.482-2.092-1.308z"/><path d="M102.074 190.824c5.839 16.209 15.338 26.23 26.057 26.23 7.843 0 14.989-5.315 20.653-14.727.523-.785.262-1.917-.61-2.353-.784-.523-1.917-.262-2.353.61-5.054 8.453-11.241 12.985-17.69 12.985-8.89 0-17.342-8.89-22.745-23.966-.349-.871-1.308-1.394-2.266-1.045-.959.348-1.395 1.394-1.046 2.266zm53.16-3.138c3.05-9.586 4.618-20.74 4.618-32.33 0-28.846-10.11-53.77-24.488-60.132-.872-.348-1.917 0-2.266.872-.349.871 0 1.917.871 2.266 12.811 5.664 22.397 29.28 22.397 56.993 0 11.242-1.569 21.96-4.444 31.286-.262.958.261 1.917 1.132 2.178.872.262 1.83-.261 2.18-1.133zM188 185.943a8.368 8.368 0 0 0-8.366-8.366 8.368 8.368 0 0 0-8.366 8.366 8.368 8.368 0 0 0 8.366 8.366c4.706 0 8.366-3.747 8.366-8.366zm-3.486 0a4.872 4.872 0 0 1-4.88 4.88 4.872 4.872 0 0 1-4.88-4.88 4.872 4.872 0 0 1 4.88-4.88 4.872 4.872 0 0 1 4.88 4.88zM76.366 194.31a8.368 8.368 0 0 0 8.366-8.366 8.368 8.368 0 0 0-8.366-8.366A8.368 8.368 0 0 0 68 185.943a8.368 8.368 0 0 0 8.366 8.366zm0-3.485a4.872 4.872 0 0 1-4.88-4.88 4.872 4.872 0 0 1 4.88-4.88 4.872 4.872 0 0 1 4.88 4.88 4.872 4.872 0 0 1-4.88 4.88z"/><path d="M128.13 103.678a8.368 8.368 0 0 0 8.367-8.366 8.368 8.368 0 0 0-8.366-8.366 8.368 8.368 0 0 0-8.366 8.366 8.368 8.368 0 0 0 8.366 8.366zm0-3.486a4.872 4.872 0 0 1-4.88-4.88 4.872 4.872 0 0 1 4.88-4.88 4.872 4.872 0 0 1 4.88 4.88c0 2.701-2.265 4.88-4.88 4.88zm1.22 61.089c-3.224.697-6.448-1.394-7.145-4.619-.697-3.224 1.394-6.448 4.619-7.146 3.224-.697 6.448 1.395 7.145 4.62.698 3.223-1.307 6.448-4.618 7.145z"/></g></svg>
